!!!!SEGMENT: pl-wtm--r-2114--001_wysocki-kasper-napoleon--piano-piece-n-1.krn
!!!cenid: 18xx:4359
!!!COM: Wysocki, Kasper Napoleon
!!!COM-rismID: pe41024789
!!!CDT: 1810/12/06-1850/09/21
!!!CNT: Polish
!!!GTL: [Piano piece]
!!!OTL: N. 1.
!!!OMV: 001
!!!PDT:
!!!AGN: Secular
!!!SMS-siglum: PL-Wtm
!!!SMS-shelfmark: R 2114
!!!SMS-shelfwork: 001-001 G
!!!SMS-variant:
!!!SMS-altvar:
!!!NIFC-rismSourceID: 1001130432
!!!NIFC-rismChildID: 1001130434
!!!NIFC-islandoraID: pl-wtm:29820
!!!URL-pdf-islandora: https://repozytorium.nifc.pl/islandora/object/pl-wtm:29820/datastream/PDF/view
!!!URL-scan: https://polish.musicsources.pl/pl/lokalizacje/galeria/rekopisy/6548/2 @EN{Scan on Polish Music Sources Website} @PL{Skany w portalu Dziedzictwo Muzyki Polskiej w otwartym dostępie}
!!!ONB-nifc: UWAGA: skan 2-3.
!!!AIN: 1 piano
!!!key:
**kern	**kern	**dynam
*part1	*part1	*part1
*staff2	*staff1	*
*	*I"fortepian	*
*	*I'	*
*	*Ipiano	*
*	*ICklav	*
*	*IGsolo	*
*clefF4	*clefG2	*
*k[b-e-]	*k[b-e-]	*
*B-:	*B-:	*
*M3/4	*M3/4	*
*>[A,A,B]	*>[A,A,B]	*
=1	=1	=1
*>A	*>A	*
*^	*	*
*	*^	*	*
*2\right	*	*	*	*
2.BB-:\	2.BBB-:/	4DD:/ 4FF:	2.F<:/ 2.B-<: 2.d: 2.f:	.
.	.	2ryy	.	.
*	*v	*v	*	*
=2	=2	=2	=2
2BBB-:\ 2BB-:	4EE-:\ 4GG:	2G<:/ 2B-<: 2e-: 2g:	.
.	2ryy	.	.
4BBB-:\ 4EE-: 4GG: 4BB-:	.	4G<:/ 4B-<: 4e-: 4g:	.
*v	*v	*	*
=3	=3	=3
8BBB-\ 8DD 8FF 8BB-	8F</ 8B<- 8d 8f	.
8r	8r	.
4BB-:\ 4F: 4B-:	4d:/ 4f: 4dd:	.
4BB-:\ 4F: 4B-:	4d^:/ 4f: 4b-:	.
=4	=4	=4
*	*^	*
2.BB-:\ 2.F: 2.B-:	2f:/	2.d:/	.
.	(<4f^^/	.	p
=5	=5	=5	=5
8AA\ 8F 8A	8e-/)	4c\	.
8r	8r	.	.
*	*	*2\right	*
2AA:\ 2F: 2A:	4.cc:/	2c:\ 2e-:	.
.	8e-/	.	.
=6	=6	=6	=6
8BB-\ 8F	8B-/ 8d	4ryy	.
8r	8r	.	.
2FF:\ 2BB-: 2D: 2F:	4.g:/	2B-:\ 2d:	.
.	8f/	.	.
*	*v	*v	*
!!LO:LB:g=original
=7	=7	=7
*^	*	*
!LO:N:vis=2	!	!	!
[<2.C/ [>2.F	4FF/	4..A/ 4..c	.
.	4FF/	.	.
.	.	16A/KL 16c	.
.	4FF/	8A/ 8c	.
.	.	8B-/J 8d	<[
*v	*v	*	*
=8	=8	=8
*	*^	*
2FF/ 2C] 2F]	(<4c/	2A/	.
.	4f/)	.	.
4FF\ 4C 4F	4A/ 4f	4ryy	.
*	*v	*v	*
=9	=9	=9
2.BBB-:/ 2.BB-:	2.F<:/ 2.B-<: 2.d: 2.f:	.
=10	=10	=10
*^	*	*
*	*^	*	*
2BB-:\	2.BBB-:\	4EE-:\ 4GG:	2G<:/ 2B-<: 2e-: 2g:	.
.	.	2ryy	.	.
4BBB-:\ 4EE-: 4GG: 4BB-:	.	.	4G<:\ 4B-<: 4e-: 4g:	.
*v	*v	*v	*	*
=11	=11	=11
8BBB-:\ 8DD: 8FF: 8BB-:	8F<:/ 8B-<: 8d: 8f:	.
8r	8r	.
4BB-:\ 4F: 4B-:	4d:/ 4f: 4dd:	.
4BB-:\ 4F: 4B-:	4d:/ 4f: 4b-:	.
=12	=12	=12
4BBn\ 4F 4A-X 4Bn	4f\ 4a-X 4ff	.
4BB\ 4F 4A- 4B	4f\ 4a- 4een	.
8BB\ 8F 8A- 8B	8f/ 8a- 8dd	.
8r	8r	.
!!LO:LB:g=original
=13	=13	=13
*	*^	*
8C\ 8An 8c	8f/ 8an 8dd	4ryy	.
8r	8r	.	.
*2\left	*	*	*
2C:\ 2A: 2c:	4.ff:/	2f:\ 2a:	.
.	8f/	.	.
=14	=14	=14	=14
8CC/ 8C	8B-/ 8en 8g	4ryy	.
8r	8r	.	.
2CC/ 2C	4.b-:/	2B-:\ 2e:	.
.	8e/	.	.
*	*v	*v	*
=15	=15	=15
*^	*	*
[2.C/	4FF/	4..A/ 4..f	.
.	4FF/	.	.
.	.	16A/KL 16f	.
.	4FF/	8A/ 8f	.
.	.	8G/J 8en	.
*v	*v	*	*
=16	=16	=16
2FF/ 2C]	4.A/ 4.f	.
.	8f/L	.
.	8qa/	.
4ryy	8.g/	.
.	16f/Jk	.
=17:|!	=17:|!	=17:|!
*>B	*>B	*
*2\right	*	*
!	!	!LO:DY:t=p.
2.AA\ 2.F 2.A	2c/ 2e- 2cc	p
.	4c/ 4e-	.
!!LO:LB:g=original
=18	=18	=18
*	*^	*
2AA\ 2F 2A	4e-/	2.c/	.
.	4.g/	.	.
4AA\ 4F 4A	.	.	.
.	8f/	.	.
=19	=19	=19	=19
2BB-\ 2F	4d/	2.B-/	.
.	8qd/	.	.
.	4.g/	.	.
4BB-\ 4F	.	.	.
.	8f/	.	.
*	*v	*v	*
=20	=20	=20
*^	*	*
2F/	4FF/	8.A/L 8.c	.
.	.	16B-/Jk 16d	.
.	4FF/	4A/ 4c	.
4FF/	4ryy	8.f/L	.
.	.	16e-/Jk	.
*v	*v	*	*
=21	=21	=21
2.AA\ 2.F 2.A	2c/ 2e- 2cc	.
.	4c/ 4f	.
=22	=22	=22
4AA:\ 4F: 4A:	4e-:/ 4a: 4ee-:	.
4AA:\ 4F: 4A:	4e-:/ 4a: 4dd:	.
4AA:\ 4F: 4A:	4e-:/ 4a: 4cc:	.
!!LO:LB:g=original
=23	=23	=23
*	*^	*
4BB-\ 4F 4B-	4d/ 4b-	4ryy	.
*2\left	*	*	*
2BB-\ 2F 2B-	8.b-/L	2d\	.
.	16a/K	.	.
.	8.b-/	.	.
.	16dd/Jk	.	.
*	*v	*v	*
=24	=24	=24
*2\right	*	*
2FF:\ 2C: 2A:	2f/ 2a 2cc	<
4r	4cc#X\	[
=25	=25	=25
*	*^	*
2FF#X:\ 2D: 2A:	2dd/	2.d\ 2.a	f
4r	4cc/	.	.
=26	=26	=26	=26
2.GG:\ 2.D: 2.B-:	4.b-/	2.d\	.
.	8b-/L	.	.
.	8a/	.	.
.	8g/J	.	.
=27	=27	=27	=27
*^	*	*	*
2.G:/	2.EEn:\ 2.C:	2cc/	2.c\ 2.g	.
.	.	4b-/	.	.
*v	*v	*	*	*
!!LO:LB:g=original
=28	=28	=28	=28
2.FF:\ 2.C: 2.A:	4.a/	2.c\	.
.	8a/L	.	.
.	8g/	.	.
.	8f/J	.	.
*	*v	*v	*
=29	=29	=29
4BBn\ 4D 4F 4G#X 4Bn	4.f/	.
*2\left	*	*
2BB\ 2D 2F 2G# 2B	.	.
.	8f/L	.
.	8e-/	.
.	8d/J	.
=30	=30	=30
!	!LO:TX:b:i:t=rallentando.	!
4C\ 4F 4A	4.c/	.
*2\right	*	*
2C\ 2F 2A	.	.
.	8c/L	.
.	8f/	.
.	8a/J	.
=31	=31	=31
(<[>4C\	4dd\	.
2C\]) 2G 2B- 2en	8cc\L	.
.	8b-\	.
.	8g\	.
.	8a\J	.
=32	=32	=32
8F\ 8A 8c	8.f/L	.
8r	.	.
.	16g/K	.
2FF:\ 2C: 2E-X: 2A:	8f/	.
.	8e-/	.
.	8c/	.
.	8g/J	.
!!LO:LB:g=original
==33	==33	==33
*^	*	*
!	!	!LO:TX:a:B:t=a tempo	!
2.BBB-:\ 2.BB-:	4DD:\ 4FF:	2.F<:/ 2.B-<: 2.d: 2.f:	f
.	2ryy	.	.
=34	=34	=34	=34
2BBB-:\ 2BB-:	4EE-:\ 4GG:	2G<:/ 2B-<: 2e-: 2g:	.
.	2ryy	.	.
4BBB-:\ 4EE-: 4GG: 4BB-:	.	4G<:/ 4B-<: 4e-: 4g:	.
*v	*v	*	*
=35	=35	=35
8BBB-:\ 8DD: 8FF: 8BB-:	8F<:/ 8B-<: 8d: 8f:	.
8r	8r	.
4BB-:\ 4F: 4B-:	4d:/ 4f: 4dd:	.
4BB-:\ 4F: 4B-:	4d:/ 4f: 4b-:	.
=36	=36	=36
*	*^	*
2.BB-:\ 2.F: 2.B-:	2f:/	2.d:\	.
.	4f/	.	.
=37	=37	=37	=37
8AA\ 8F 8A	8c/ 8e-	4ryy	.
8r	8r	.	.
2AA:\ 2F: 2A:	4.cc:/	2c:\ 2e-:	.
.	8e-/	.	.
=38	=38	=38	=38
8BB-\ 8F	8B-/ 8d	4ryy	.
8r	8r	.	.
2FF:\ 2BB-: 2D:	4.g:/	2B-:\ 2d:	.
.	8f/	.	.
*	*v	*v	*
!!LO:PB:g=original
=39	=39	=39
*^	*	*
[<2.C/ [>2.F	4FF/	4..A/ 4..c	.
.	4FF/	.	.
.	.	16A/KL 16c	.
.	4FF/	8A/ 8c	.
.	.	8A/J 8c	.
*v	*v	*	*
=40	=40	=40
*	*^	*
2FF/ 2C] 2F]	4c/	2A\	.
.	4f/	.	.
4FF/ 4C 4F	4A/ 4f	4ryy	.
*	*v	*v	*
=41	=41	=41
2.BBB-:\ 2.BB-:	2F<:/ 2B-<: 2d: 2f:	f
.	4ryy	.
=42	=42	=42
*^	*	*
2.BBBn\ 2.BBn	4DD\ 4FF	2A-X</ 2d 2f 2a-X	.
.	2ryy	.	.
.	.	4g/	.
*v	*v	*	*
=43	=43	=43
8CC\ 8C	8G</ 8c< 8e- 8g	.
8r	8r	.
4C:\ 4G: 4c:	4e-:\ 4g: 4ee-:	.
4C:\ 4G: 4c:	4e-:\ 4g: 4dd:	.
=44	=44	=44
8C\ 8G 8c	8e-/ 8g 8cc	.
8r	8r	.
4.EE-/ 4.BB- 4.E- 4.G	4.B-/ 4.e- 4.b-	.
8EE-/ 8BB- 8E- 8G	8B-/ 8e- 8g	.
!!LO:LB:g=original
=45	=45	=45
*	*^	*
8FF/ 8BB- 8D 8F	8B-/ 8d 8f	4ryy	.
8r	8r	.	.
2FF:/ 2BB-: 2D: 2F:	4.b-/	2B-:\ 2d:	.
.	8d/	.	.
=46	=46	=46	=46
*^	*	*	*
2C/ 2F	4FF\	4f/	2.A\	.
.	4FF\	8ryy	.	.
.	.	8e-/L	.	.
4ryy	4FF\	8c/	.	.
.	.	8d/J	.	.
*	*	*v	*v	*
=47	=47	=47	=47
2BBB-:\ 2BB-:	4DD:\ 4FF:	2D<:/ 2F<: 2B-<:	.
.	2ryy	.	.
4BBB-\ 4EE- 4GG-X 4BB-	.	8.E-</L 8.G-X< 8.B-<	.
.	.	16B-</Jk	.
=48	=48	=48	=48
2BBB-:\ 2BB-:	4DD:\ 4FF:	2D<:/ 2F<: 2B-<:	.
.	2ryy	.	.
4BBB-\ 4EE- 4GG-X 4BB-	.	8.E-</L 8.G-X< 8.B-<	.
.	.	16c</Jk	.
*v	*v	*	*
=49	=49	=49
*	*^	*
8BBB-\ 8DD 8FF 8BB-	8F</ 8B-< 8d<	4ryy	.
8r	8r	.	.
2GGG/ 2BBB- 2DD 2FF	4.g/	2F</ 2B-< 2d	.
.	8f/	.	.
*	*v	*v	*
=50	=50	=50
*^	*	*
2FF\ 2E- 2A 2c	4FFF\	4f/	.
.	4FFF\	8c/L	.
.	.	8c/	.
4ryy	4FFF\	8.d/	.
.	.	16c/Jk	.
!!LO:LB:g=original
=51	=51	=51	=51
*	*	*^	*
2BBB-\	4DD\ 4FF	(<[>4B-</	2BB-</ 2D< 2F<	.
.	2ryy	8.B-</L])	.	.
.	.	16B-</Jk	.	.
4BBB-\ 4EE- 4GG-X 4BB-	.	8.B-</L	4E-</ 4G-X<	.
.	.	16B-</Jk	.	.
=52	=52	=52	=52	=52
2BBB-\	4DD\ 4FF	4B-</	2BB-</ 2D< 2F<	.
.	2ryy	8.B-</L	.	.
.	.	16B-</Jk	.	.
4BBB-\ 4EE- 4GG-X 4BB-	.	8.B-</L	4E-</ 4G-X<	.
.	.	16c</Jk	.	.
*v	*v	*	*	*
*	*v	*v	*
=53	=53	=53
8BBB-\ 8DD 8FF 8BB-	8D</ 8F< 8B-< 8d<	.
8r	8r	.
4FFF/ 4BBB- 4DD 4FF	4G/ 4b-	.
4FFF/ 4DD 4FF	8B-/L 8d 8a	.
.	8B-/J 8d 8g	.
=54	=54	=54
*^	*	*
*	*^	*	*
2.FF/	8FFF\L	2ryy	8E-</L 8A< 8c< 8f<	.
.	8FFF\	.	8E-</ 8A< 8c<	.
.	8FFF\	.	8E-</ 8A< 8Bn<	.
.	8FFF\	.	8E-</ 8A< 8c<	.
.	8..FFF\J	4FFF/	8.E-</ 8.A< 8.d<	.
.	.	.	16E-</Jk 16A< 16c<	.
.	32ryy	.	.	.
*	*v	*v	*	*
!!LO:LB:g=original
=55	=55	=55	=55
2BBB-\	4DD\ 4FF	2BB-</ 2D< 2F< 2B-<	.
.	2ryy	.	.
4BBB-\ 4EE-	.	8.GG-X</L 8.BB-< 8.E-< 8.G-X< 8.B-<	.
.	.	16c</Jk	.
*v	*v	*	*
=56	=56	=56
2.BBB-\ 2.DD 2.FF 2.BB-	2.D</ 2.F< 2.B-< 2.d<	.
=57	=57	=57
2.DD\ 2.AA 2.D	2.F#X</ 2.A< 2.d<	.
=58	=58	=58
*	*^	*
2GG\ 2D	2B-</ 2d	2G</	.
4CC\ 4C	8.f/L	4G</ 4c<	.
.	16e-/Jk	.	.
=59	=59	=59	=59
!LO:N:vis=1	!	!	!
(<[>2FF\	2B-</ 2d	2F</	.
4FFF\) 4FF\]	8.c/L	4E-</ 4A<	.
.	16B-/Jk	.	.
*	*v	*v	*
=60	=60	=60
*^	*	*
2BBB-\	4DD\ 4FF	2BB-</ 2D< 2F< 2B-<	.
.	2ryy	.	.
4BBB-\ 4EE- 4GG 4BB-	.	8.E-</L 8.G< 8.B-<	.
.	.	16c</Jk	.
*v	*v	*	*
!!LO:LB:g=original
=61	=61	=61
2.BBB-\ 2.DD 2.FF	2.BB-</ 2.D< 2.F< 2.B-< 2.d<	.
=62	=62	=62
2.DD\ 2.AA 2.D	2.F#X</ 2.A< 2.d<	.
=63	=63	=63
*	*^	*
2GG\ 2D 2G	2ryy	2B-</ 2d<	.
4CC\ 4C	8.f/L	4G</ 4c<	.
.	16e-/Jk	.	.
=64	=64	=64	=64
*^	*	*	*
!	!	!	!LO:N:vis=1	!
2FF/	2ryy	(>[<4d</	2F</ 2B-<	.
.	.	8.d</L])	.	.
.	.	16c</Jk	.	.
4FF/	4FFF\	8.c</L	4E-</ 4A<	.
.	.	16d</Jk	.	.
*	*	*v	*v	*
=65	=65	=65	=65
2BBB-\	4DD\ 4FF	2BB-</ 2D< 2F< 2B-<	.
.	2ryy	.	.
4BBB-\ 4EE- 4GG-X 4BB-	.	8.E-</L 8.G-X< 8.B-<	.
.	.	16c</Jk	.
*v	*v	*	*
=66	=66	=66
[<2.BBB-\ [>2.DD [>2.FF [<2.BB-	[>2.D</ [>2.F< [<2.B-< [<2.d<	.
=67	=67	=67
2.BBB-\] 2.DD] 2.FF] 2.BB-]	2.D</] 2.F<] 2.B-<] 2.d<]	.
==	==	==
*-	*-	*-
!!!system-decoration: {(s1,s2)}
!!!RDF**kern: < = below
!!!RDF**kern: > = above
!!!ENC: Filip Voros
!!!END: 2023-07-11
!!!ENC: Marta Chmielewska
!!!END: 2023-07-18
!!!YEC: Copyright 2022 Narodowy Instytut Fryderyka Chopina (https://polishscores.org)
!!!YEM: License CC-BY-4.0 (https://creativecommons.org/licenses/by/4.0)
